X: 1462
T: Nevâ Peşrev
C: Tanburî Cemil Bey
O: Turkey
F: http://compmusic.upf.edu/node/140
N: neva--pesrev--devrikebir----tanburi_cemil_bey
N: makam= neva
N: form= pesrev
N: usul= devrikebir = 28/4
M: 28/4
L: 1/16
K: C _2/4B ^3/4f  
Q: 1/4=72
%%MIDI tuningsystem comma53
e2d2 c2B2 c2d2 c2B2  | z2AB A2B2 c4 d4  | \
w:  1. HANE  |   | 
A4 B2c2 d4 e4  | d6e2 d4 c2B2  | 
w:   |   | 
c3B c2d2 c2d2 c2B2  | d4 e3d c4 c3B  | \
w:   |   | 
B4 c3B A8  | e2d2 c2B2 B2d2 c2B2  | 
w:   |   | 
A2B2 A2B2 c4 d4  | A4 B2c2 d4 eg=fe  | \
w:   |   | 
d6e2 d4 c2B2  | c2B2 c2d2 c2d2 c2B2  | 
w:   |   | 
f4 g3f e4 =f3e  | d3e =fgfe edd^c d4  | \
w:   |   | 
e3f g2a2 g2f2 e2g2  | 
w:   | 
f3e d4 (3e2d2e2 (3f2g2f2  | g8 g2f2 e2f2  | \
w:   |   | 
g2a2 g2f2 f2g2 f2e2  | 
w:   | 
a2g2 =f2e2 d3c B2g2  | f4 e2fg f2g2 f2e2  | \
w:   |   | 
z2d4=f2 e2fg fed2  | 
w:   | 
c4 d4 d6e2  | d4 c2B2 c2d2 c2B2  | c2B2 c2d2 cedc c4  | \
w:  TESLİM  |   |   | 
z4 d2e2 f2g2 a2g2  | 
w:   | 
ag=fe d2e2 d2c4B2  | B3A B2c2 B3d c2B2  | \
w:   |   | 
A6e2 d2c2 d4  | 
w:  2. HANEYE  | 
e3=f efed d6c2  | e6d2 (3=f2e2d2 c2B2  | \
w:  2. HANE  |   | 
A4 G2A2 A4 g4  | f3a g2f2 f3e d2e2  | 
w:   |   | 
d4 e4 e2=f2 e2d2  | e2=f4ed d6ef  | ed^c=B c2d2 c8  | \
w:   |   |   | 
^c3d e3f g3f a3g  | 
w:   | 
f3e g3f e2d2 g=fed  | ^c4 A2_7/8Bc B2c2 B2A2  | \
w:   |   | 
z2e2 d2^c2 _7/8B4 A4  | 
w:   | 
^G4 A4 A4 _7/8BAB^c  | A6a2 g3^f ^e2f2  | \
w:   |   | 
^e2^f2 gagf f8  | z2d4e2 f4 e2g2  | 
w:   |   | 
f6ed d8  | z2g4f2 e4 a3g  | f3e d2e2 f2a2 g4  | \
w:   |   |   | 
g4 =f2e2 d3c B2g2  | 
w:   | 
f4 e2f2 gfg2 f2e2  | z2d4=f2 e2fg fed2  | \
w:   |   | 
c4 d4 d6e2  | 
w:  TESLİM  | 
d4 c2B2 c2d2 c2B2  | c2B2 c2d2 cedc c4  | \
w:   |   | 
z4 d2e2 f2g2 a2g2  | 
w:   | 
ag=fe d2e2 d2c4B2  | B3A B2c2 B3d c2B2  | \
w:   |   | 
A6g2 a8  | a4 a4 g4 f4  | 
w:  3. HANEYE  |  3. HANE  | 
g2a2 g2f2 g4 a4  | z4 g2a2 g4 c'4  | \
w:   |   | 
b4 a4 g4 f4  | c'6d'2 c'2b4c'2  | b3a g2a2 a2c'4ba  | 
w:   |   |   | 
a12 z4  | d'8 c'4 b4  | c'2d'2 c'2b2 c'4 d'4  | \
w:   |   |   | 
z4 g2a2 g4 c'4  | d'3c' b2c'2 b4 a4  | 
w:   |   | 
c'3_1/4b a2_b2 a2b2 a2g2  | c'8 c'2_1/4b4a2  | \
w:   |   | 
a2g4^f2 agf^e f2g2  | 
w:   | 
^f4 g2a2 g4 a4  | ^f3g f2e2 e2=f2 e2d2  | \
w:   |   | 
e3d ^c2d2 c2d2 e=fed  | 
w:   | 
d6e2 d4 e2=f2  | e2d4e2 d2c2 B2g2  | \
w:   |   | 
f4 e2fg f2g2 f2e2  | z2d4=f2 e2fg fed2  | 
w:   |   | 
c4 d4 d6e2  | d4 c2B2 c2d2 c2B2  | c2B2 c2d2 cedc c4  | \
w:  TESLİM  |   |   | 
z4 d2e2 f2g2 a2g2  | 
w:   | 
ag=fe d2e2 d2c4B2  | B3A B2c2 B3d c2B2  | \
w:   |   | 
A6g2 ^f2^e2 f4  | 
w:  4. HANEYE  | 
z2d4^e2 ^f8  | g4 a2g2 ^f4 g3f  | e2g2 =f2e2 edd^c d4  | \
w:   |   |   | 
g8 g2^f2 f2^e2  | 
w:   | 
^e2d2 d2^c2 _1/4B2c2 d2e2  | ^c4 d4 d2^f4ed  | \
w:   |   | 
d6g2 a8  | g4 a4 a4 b2c'2  | 
w:   |   | 
b2a4g2 f2e2 d4  | z4 e2f2 e2f2 d4  | \
w:   |   | 
e2f2 e2f2 g8  | g6f2 g2f2 c'2ba  | 
w:   |   | 
a2g4^f2 ^e2f2 gaga  | f6a2 g4 a2b2  | \
w:   |   | 
a3g f2g2 a2c'2 b2a2  | 
w:   | 
a2g2 g2f2 g3f e4  | f2e2 f2g2 a2g2 =f2e2  | \
w:   |   | 
d6e2 e4 e2=f2  | e2d4e2 d3c B2g2  | 
w:   |   | 
f4 e2fg f2g2 f2e2  | z2d4=f2 e2f2 e2d2  | \
w:   |   | 
c4 d4 d6e2  | d4 c2B2 c2d2 c2B2  | 
w:  TESLİM  |   | 
c2B2 c2d2 cedc c4  | z4 d2e2 f2g2 a2g2  | \
w:   |   | 
ag=fe d2e2 d2c4B2  | 
w:   | 
B3A B2c2 B3d c2B2  | A12 z4  | |


